X: 1
T: Henrietta Hornpipe
R: hornpipe
M: 2/4
L: 1/16
K: F
|: d \
| "F"c2c2 Acfa | "Gm"g2g2 g3e | "C"fedc "C7"=Bcde | "F"fefg a4 \
| "F"c2c2 Acfa | "Gm"g2g2 g3e | "C"fedc "C7"=Bcde | "F"f2a2f3 :|
|: c \
| "F"fc=Bc AcBc | "Bb"dBAB GBAB | "F"Acfe "Bb"dfba | "G7"gfed "C"c2de \
| "F"fc=Bc AcBc | "Bb"dBAB GBAB | "F"Acfa "C7"gbeg | "F"f2a2f3 :|
